X:1
T:22.  Stars of the Summer Night
T:I.B. Woodbury
T:Longfellow
T:Transcribed By  Jennifer Lee
T:22.  Stars of the Summer Night
T:Public Domain
C:I.B. Woodbury
Z:Longfellow
Z:Public Domain
%%score { ( 1 3 ) | ( 2 4 ) }
L:1/8
M:4/4
K:Eb
V:1 treble nm="Piano" snm="Pno."
V:3 treble 
V:2 bass 
V:4 bass 
V:1
"^This is an American song of unusual  beauty. The words occur in Longfellow's \"Spanish Student\" in the form of a serenade. The music, by J.B. Woodbury (1819-1858), has long been a favorite with college students everywhere. It is most effectie when sung in parts unaccompanied." [GB]4 [^F=A]2 [GB]2 | %1
w: Stars of the|
 E3 F G4 | A4 G2 E2 | G3 F F4 | E4 A2 c2 | B3 A G2 E2 | [EG]2 z [EG] [GB]2 [FA]2 | [EG]6 z2 | %8
w: sum- mer night,|Far in yon|az- ure deep,|Hide, hide your|gold- en light, She|sleeps, my la- dy|sleeps,|
"^2.  Moon of the summer night,     Far down yon western steeps,     Sink, sink in silver light,     She sleeps, my lady sleeps,     She sleeps, She sleeps, my lady sleeps."!>(!!<(! [Ec]8!>)!!<)! | %9
w: She|
 [EB]4 z2 E2 | [EG]2 z [EG] [GB]2 [FA]2 | [EG]8 |] %12
w: sleeps, She|sleeps, my la- dy|sleeps.|
V:2
 [E,B,]4 [E,C]2 [E,B,]2 | [E,G,]3 [E,A,] [E,B,]4 | [A,,C]4 [E,B,]2 [G,,B,]2 | %3
 [B,,B,]3 [B,,B,] [B,,B,]4 | [C,G,]4 [A,,C]2 [A,,E]2 | [E,E]3 [E,B,] [E,B,]2 [G,B,]2 | %6
 B,2 z B, [B,,B,]2 [B,,B,]2 | [E,B,]6 z2 | [A,,A,]8 | %9
 [E,G,]4 z2"^3.  Dreams of the summer night,     Tell her, her lover keeps     Watch, while, in slumber light,     She sleeps, my lady sleeps,     She sleeps, She sleeps, my lady sleeps." [G,B,]2 | %10
 B,2 z B, [B,,B,]2 [B,,B,]2 | [E,B,]8 |] %12
V:3
 x8 | E3 E E4 | E4 E2 E2 | E3 D D4 | C4 E2 A2 | G3 F E2 E2 | x8 | x8 | x8 | x4 x2 E2 | x8 | x8 |] %12
V:4
 x8 | x8 | x8 | x8 | x8 | x8 | B,2 x B, x4 | x8 | x8 | x8 | B,2 x B, x4 | x8 |] %12

